app/component-library/components/Icons/Icon/assets/chart.svg

<svg width="24" height="24" viewBox="0 0 24 24" fill="none" xmlns="http://www.w3.org/2000/svg">
<path d="M22.2812 22H2.28125C1.87125 22 1.53125 21.66 1.53125 21.25C1.53125 20.84 1.87125 20.5 2.28125 20.5H22.2812C22.6912 20.5 23.0312 20.84 23.0312 21.25C23.0312 21.66 22.6912 22 22.2812 22Z" fill="currentColor"/>
<path d="M10.0312 4V22H14.5312V4C14.5312 2.9 14.0812 2 12.7312 2H11.8313C10.4813 2 10.0312 2.9 10.0312 4Z" fill="currentColor"/>
<path d="M3.28125 10V22H7.28125V10C7.28125 8.9 6.88125 8 5.68125 8H4.88125C3.68125 8 3.28125 8.9 3.28125 10Z" fill="currentColor"/>
<path d="M17.2812 15V22H21.2812V15C21.2812 13.9 20.8812 13 19.6812 13H18.8813C17.6813 13 17.2812 13.9 17.2812 15Z" fill="currentColor"/>
</svg>

<svg xmlns="http://www.w3.org/2000/svg" width="24" height="24" viewBox="0 0 24 24" fill="none"><path d="M22.281 22h-20c-.41 0-.75-.34-.75-.75s.34-.75.75-.75h20c.41 0 .75.34.75.75s-.34.75-.75.75z" fill="currentColor"/><path d="M10.031 4v18h4.5V4c0-1.1-.45-2-1.8-2h-.9c-1.35 0-1.8.9-1.8 2zM3.281 10v12h4V10c0-1.1-.4-2-1.6-2h-.8c-1.2 0-1.6.9-1.6 2zM17.281 15v7h4v-7c0-1.1-.4-2-1.6-2h-.8c-1.2 0-1.6.9-1.6 2z" fill="currentColor"/></svg>
